X:1
T:Title
L:1/4
M:4/4
I:linebreak $
K:G
V:1 treble nm="Voice" snm="Voice"
V:1
"G" B2 B/c/B/A/ | G B D B/c/ | d d e/d/B/c/ | d3 e/f/ |$ g2 f g/f/ |1 A d ^c e | d c B A :|2 %7
 A G E D | G2 G2 :|$ B e e e/f/ | g e e e/f/ | g f e d | B2 d2 |$ A d d d/e/ | f d d f/g/ | %15
 a g f e | d c B A | %17
